icons/codescan-24.svg

<svg width="24" height="24" viewBox="0 0 24 24" fill="none" xmlns="http://www.w3.org/2000/svg">
<path d="M11.9697 6.96967C11.6768 7.26256 11.6768 7.73744 11.9697 8.03033L14.4393 10.5L11.9697 12.9697C11.6768 13.2626 11.6768 13.7374 11.9697 14.0303C12.2626 14.3232 12.7374 14.3232 13.0303 14.0303L16.0303 11.0303C16.3232 10.7374 16.3232 10.2626 16.0303 9.96967L13.0303 6.96967C12.7374 6.67678 12.2626 6.67678 11.9697 6.96967Z" fill="black"/>
<path d="M9.03033 8.03033C9.32322 7.73744 9.32322 7.26256 9.03033 6.96967C8.73744 6.67678 8.26256 6.67678 7.96967 6.96967L4.96967 9.96967C4.67678 10.2626 4.67678 10.7374 4.96967 11.0303L7.96967 14.0303C8.26256 14.3232 8.73744 14.3232 9.03033 14.0303C9.32322 13.7374 9.32322 13.2626 9.03033 12.9697L6.56066 10.5L9.03033 8.03033Z" fill="black"/>
<path fill-rule="evenodd" clip-rule="evenodd" d="M10.5 0C4.70101 0 0 4.70101 0 10.5C0 16.299 4.70101 21 10.5 21C13.1296 21 15.5334 20.0334 17.3754 18.4361L21.7197 22.7803C22.0126 23.0732 22.4874 23.0732 22.7803 22.7803C23.0732 22.4874 23.0732 22.0126 22.7803 21.7197L18.4361 17.3754C20.0334 15.5334 21 13.1296 21 10.5C21 4.70101 16.299 0 10.5 0ZM1.5 10.5C1.5 5.52944 5.52944 1.5 10.5 1.5C15.4706 1.5 19.5 5.52944 19.5 10.5C19.5 15.4706 15.4706 19.5 10.5 19.5C5.52944 19.5 1.5 15.4706 1.5 10.5Z" fill="black"/>
</svg>

<svg xmlns="http://www.w3.org/2000/svg" width="24" height="24" viewBox="0 0 24 24"><path d="M11.97 6.97a.75.75 0 000 1.06l2.47 2.47-2.47 2.47a.75.75 0 101.06 1.06l3-3a.75.75 0 000-1.06l-3-3a.75.75 0 00-1.06 0zM9.03 8.03a.75.75 0 00-1.06-1.06l-3 3a.75.75 0 000 1.06l3 3a.75.75 0 001.06-1.06L6.56 10.5l2.47-2.47z"/><path fill-rule="evenodd" d="M10.5 0C4.701 0 0 4.701 0 10.5S4.701 21 10.5 21c2.63 0 5.033-.967 6.875-2.564l4.345 4.344a.75.75 0 101.06-1.06l-4.344-4.345A10.459 10.459 0 0021 10.5C21 4.701 16.299 0 10.5 0zm-9 10.5a9 9 0 1118 0 9 9 0 01-18 0z"/></svg>
